X:57
M:6/8
L:1/8
K:F
|:cdc agf|_edc "tr"B>AB|BcB gf=e|dcB Aff|dBf dBf|cAf cAf|AcF GBE|F3 f3:|

